icons/vuex-store.svg

<svg fill="none" version="1.1" viewBox="0 0 16 16" xmlns="http://www.w3.org/2000/svg"><g transform="matrix(.8043 0 0 .8043 1.4852 1.5495)" clip-path="url(#clip0)"><g><path d="m.2 15.99 6.32-12.75 1.58 3.11v3.27l-3.14 6.37zm15.8.01-6.32-12.75-1.58 3.11v3.27l3.13 6.37z" style="fill:#41b883"/><path d="m.2.04 3.95 7.98 2.37-4.78-1.58-3.2zm15.8 0-3.95 7.98-2.37-4.78 1.58-3.2z" style="fill:#35495e"/></g></g><defs><clipPath id="clip0"><path d="M0 0h16v16H0z" fill="#fff"/></clipPath></defs></svg>

<svg xmlns="http://www.w3.org/2000/svg" width="16" height="16" fill="none">
  <g clip-path="url(#clip0)">
    <path fill="#4FC08D" d="M.2 15.99L6.52 3.24 8.1 6.35v3.27l-3.14 6.37H.2zM16 16L9.68 3.25 8.1 6.36v3.27L11.23 16H16z"/>
    <path fill="#35495E" d="M.2.04l3.95 7.98 2.37-4.78L4.94.04H.2zM16 .04l-3.95 7.98-2.37-4.78 1.58-3.2H16z"/>
  </g>
  <defs>
    <clipPath id="clip0">
      <path fill="#fff" d="M0 0h16v16H0z"/>
    </clipPath>
  </defs>
</svg>
